X: 38489
T: Steampacket, The
R: reel
M: 4/4
K: Gmajor
|:AG (3GGG AGFG|AG (3GGG Addc|AG (3GGG AGFD|=F2FG ABcA:|
dg (3ggg ag (3ggf|dg (3gge fdcA|dg (3ggg ag (3gfg|d^cde fdcA|
dg (3ggg agfg|abag fefg|afge fde^c|d2eg fdcA||

